X:113
T:Denis Murphy's
T:Abbey's Green Isle
R:slide
H:Also in A, see #127
D:Dennis Doody
Z:id:hn-slide-113
M:6/8
L:1/8
K:G
B3 BAB | d2B G2A | BAB d2B | A3 G2A |
B2B BAB | d2B G2A | B2e e2d | e3 e2d :|
|: B2d g2f | g2e dBA | B2d g2f | g3 a3 |
bag agf | gfe fed | B2e e2d | e3 e2d :|
P:variations
|: B3 BAB | dBA G2A | BAB d2B | A2B G2A |
B2B BAB | dBA G2A | B2e e2d |1 e2g fed :|2 e3 e2d ||
|: B2g g2f | g2e dBA | B2g g2f | g3 g2a |
bag agf | g2e fed | B2e e2d |1 e3 e2d :|2 e2g fed ||

